X:15
T:Tracy Lafleur
C:Mike Mahar
L:1/8
Q:130
M:2/2
K:G
|: "G"G2G2 GABc | d2e2 "C"c4 | "G"B2Bc d2B2 | "D"A2AB A2D2 |
"G"G2G2 GABc | d2e2 "C"c4 | "G"dcB2 "D"A2D2 | "G"G8 :|
|: "C"g2g2 gfef | "G"e2d2 d4 | "D"A2AB c2A2 | "G"B2Bc d2B2 |
"C"g2g2 gfef | "G"e2d2 d4 |1 "D"dcB2 A2B2 | "G"G8 :|2 "D"A2B2 c2F2 | "G"G8 |]

